build/svg/cmd/lc_reload.svg

<?xml version="1.0" encoding="UTF-8" standalone="no"?>
<svg
   xmlns:dc="http://purl.org/dc/elements/1.1/"
   xmlns:cc="http://creativecommons.org/ns#"
   xmlns:rdf="http://www.w3.org/1999/02/22-rdf-syntax-ns#"
   xmlns:svg="http://www.w3.org/2000/svg"
   xmlns="http://www.w3.org/2000/svg"
   xmlns:sodipodi="http://sodipodi.sourceforge.net/DTD/sodipodi-0.dtd"
   xmlns:inkscape="http://www.inkscape.org/namespaces/inkscape"
   viewBox="0 0 24 24"
   version="1.1"
   id="svg4"
   sodipodi:docname="lc_reload.svg"
   inkscape:export-filename="/home/jupiter007/Libreoffice yaru theme fullcolor/build/cmd/lc_reload.png"
   inkscape:export-xdpi="95"
   inkscape:export-ydpi="95"
   inkscape:version="0.92.5 (2060ec1f9f, 2020-04-08)">
  <metadata
     id="metadata10">
    <rdf:RDF>
      <cc:Work
         rdf:about="">
        <dc:format>image/svg+xml</dc:format>
        <dc:type
           rdf:resource="http://purl.org/dc/dcmitype/StillImage" />
      </cc:Work>
    </rdf:RDF>
  </metadata>
  <defs
     id="defs8" />
  <sodipodi:namedview
     pagecolor="#ffffff"
     bordercolor="#666666"
     borderopacity="1"
     objecttolerance="10"
     gridtolerance="10"
     guidetolerance="10"
     inkscape:pageopacity="0"
     inkscape:pageshadow="2"
     inkscape:window-width="1920"
     inkscape:window-height="1011"
     id="namedview6"
     showgrid="true"
     inkscape:zoom="27.812867"
     inkscape:cx="4.1934249"
     inkscape:cy="11.197614"
     inkscape:window-x="1920"
     inkscape:window-y="32"
     inkscape:window-maximized="1"
     inkscape:current-layer="svg4">
    <inkscape:grid
       type="xygrid"
       id="grid817" />
  </sodipodi:namedview>
  <circle
     style="opacity:1;fill:#762572;fill-opacity:1;fill-rule:evenodd;stroke:none;stroke-width:2;stroke-linecap:butt;stroke-linejoin:round;stroke-miterlimit:4;stroke-dasharray:none;stroke-opacity:1"
     id="path819"
     cx="12"
     cy="12"
     r="9" />
  <path
     style="opacity:1;fill:#ffffff;fill-opacity:1;fill-rule:evenodd;stroke:none;stroke-width:2;stroke-linecap:butt;stroke-linejoin:round;stroke-miterlimit:4;stroke-dasharray:none;stroke-opacity:1"
     d="M 12 6 A 6 6 0 0 0 8.9589844 6.8359375 L 10.443359 8.3203125 A 4 4 0 0 1 12 8 A 4 4 0 0 1 16 12 A 4 4 0 0 1 15.683594 13.558594 L 15.683594 13.560547 L 17.164062 15.041016 A 6 6 0 0 0 18 12 A 6 6 0 0 0 12 6 z M 6.8359375 8.9589844 A 6 6 0 0 0 6 12 A 6 6 0 0 0 12 18 A 6 6 0 0 0 15.041016 17.164062 L 13.556641 15.679688 A 4 4 0 0 1 12 16 A 4 4 0 0 1 8 12 A 4 4 0 0 1 8.3164062 10.441406 A 4 4 0 0 1 8.3164062 10.439453 L 6.8359375 8.9589844 z "
     id="path823" />
</svg>

<svg xmlns="http://www.w3.org/2000/svg" viewBox="0 0 24 24"><circle cx="12" cy="12" r="9" fill="#762572" fill-rule="evenodd"/><path d="M12 6a6 6 0 00-3.041.836l1.484 1.484A4 4 0 0112 8a4 4 0 014 4 4 4 0 01-.316 1.559v.002l1.48 1.48A6 6 0 0018 12a6 6 0 00-6-6zM6.836 8.959A6 6 0 006 12a6 6 0 006 6 6 6 0 003.041-.836l-1.484-1.484A4 4 0 0112 16a4 4 0 01-4-4 4 4 0 01.316-1.559 4 4 0 010-.002l-1.48-1.48z" fill="#fff" fill-rule="evenodd"/></svg>
